_includes/icons/color-running.svg

<svg fill="#666" height="50" viewBox="0 0 48 48" width="50" xmlns="http://www.w3.org/2000/svg"><path d="m42 22.5c0 .828125-.671875 1.5-1.5 1.5h-6.488281c-.601563 0-1.144531-.355469-1.378906-.910156l-2.535157-4.945313-4.09375 7.261719 5.21875 6.007813c.78125.605468 1.007813 1.691406.523438 2.558593l-5 9c-.363281.65625-1.046875 1.027344-1.75 1.027344-.324219 0-.660156-.082031-.96875-.253906-.964844-.535156-1.3125-1.75-.773438-2.71875l4.160157-7.492188-5.667969-5.078125-4.039063 4.582032c-.359375.597656-1.007812.960937-1.707031.960937h-9c-1.105469 0-2-.894531-2-2s.894531-2 2-2h7.875l5.167969-8.164062-.042969-.027344 4.292969-7.613281-4.007813-1.195313-4.953125 3.746094c-.691406.460937-1.621093.277344-2.078125-.414063-.460937-.6875-.273437-1.621093.414063-2.078125l5.332031-4c.246094-.164062.535156-.253906.832031-.253906l6.386719.785156h.011719c.269531 0 .539062.074219.769531.214844l4.769531 2.714844c.117188.066406.214844.152344.300782.25.125.132812.238281.277344.308593.445312l2.621094 6.589844h5.5c.828125 0 1.5.671875 1.5 1.5zm-9-18.5c-2.210937 0-4 1.789063-4 4 0 2.207031 1.789063 4 4 4 2.210938 0 4-1.792969 4-4 0-2.210937-1.789062-4-4-4" fill="#ffba57"/><path d="m20.042969 21.835938-5.167969 8.164062 2.832031 3.039063 7.265625-8.242188z" fill="#2d4c5c"/><path d="m31.769531 13.714844-4.769531-2.714844c-.230469-.140625-.5-.214844-.769531-.214844h-.011719l-6.21875 11.023438 6 3.601562 6.285156-11.144531c-.125-.222656-.292968-.417969-.515625-.550781z" fill="#00acc1"/><path d="m26 25.414063-6-3.605469 1.011719-1.792969-1.515625 2.683594c-.972656 1.621094-.472656 3.699219 1.09375 4.722656l6.824219 6.113281 3.804687-2.121093-5.214844-6.007813z" fill="#546e7a"/></svg>

<svg xmlns="http://www.w3.org/2000/svg" viewBox="0 0 48 48" width="50" height="50" fill="#666"><path d="M 42 22.5 C 42 23.328125 41.328125 24 40.5 24 L 34.011719 24 C 33.410156 24 32.867188 23.644531 32.632813 23.089844 L 30.097656 18.144531 L 26.003906 25.40625 L 31.222656 31.414063 C 32.003906 32.019531 32.230469 33.105469 31.746094 33.972656 L 26.746094 42.972656 C 26.382813 43.628906 25.699219 44 24.996094 44 C 24.671875 44 24.335938 43.917969 24.027344 43.746094 C 23.0625 43.210938 22.714844 41.996094 23.253906 41.027344 L 27.414063 33.535156 L 21.746094 28.457031 L 17.707031 33.039063 C 17.347656 33.636719 16.699219 34 16 34 L 7 34 C 5.894531 34 5 33.105469 5 32 C 5 30.894531 5.894531 30 7 30 L 14.875 30 L 20.042969 21.835938 L 20 21.808594 L 24.292969 14.195313 L 20.285156 13 L 15.332031 16.746094 C 14.640625 17.207031 13.710938 17.023438 13.253906 16.332031 C 12.792969 15.644531 12.980469 14.710938 13.667969 14.253906 L 19 10.253906 C 19.246094 10.089844 19.535156 10 19.832031 10 L 26.21875 10.785156 L 26.230469 10.785156 C 26.5 10.785156 26.769531 10.859375 27 11 L 31.769531 13.714844 C 31.886719 13.78125 31.984375 13.867188 32.070313 13.964844 C 32.195313 14.097656 32.308594 14.242188 32.378906 14.410156 L 35 21 L 40.5 21 C 41.328125 21 42 21.671875 42 22.5 Z M 33 4 C 30.789063 4 29 5.789063 29 8 C 29 10.207031 30.789063 12 33 12 C 35.210938 12 37 10.207031 37 8 C 37 5.789063 35.210938 4 33 4" fill="#ffba57"/><path d="M 20.042969 21.835938 L 14.875 30 L 17.707031 33.039063 L 24.972656 24.796875 Z" fill="#2d4c5c"/><path d="M 31.769531 13.714844 L 27 11 C 26.769531 10.859375 26.5 10.785156 26.230469 10.785156 L 26.21875 10.785156 L 20 21.808594 L 26 25.410156 L 32.285156 14.265625 C 32.160156 14.042969 31.992188 13.847656 31.769531 13.714844 Z" fill="#00acc1"/><path d="M 26 25.414063 L 20 21.808594 L 21.011719 20.015625 L 19.496094 22.699219 C 18.523438 24.320313 19.023438 26.398438 20.589844 27.421875 L 27.414063 33.535156 L 31.21875 31.414063 L 26.003906 25.40625 Z" fill="#546e7a"/></svg>
